app/assets/images/heroicons/mini/receipt-refund.svg

<svg width="20" height="20" viewBox="0 0 20 20" fill="none" xmlns="http://www.w3.org/2000/svg">
<path fill-rule="evenodd" clip-rule="evenodd" d="M4.93005 2.31046C6.5916 2.10551 8.28365 2 10 2C11.7163 2 13.4084 2.10551 15.07 2.31046C16.1942 2.44913 17 3.41374 17 4.51661V17.25C17 17.5078 16.8676 17.7475 16.6494 17.8848C16.4312 18.0221 16.1578 18.0377 15.9255 17.9261L13.125 16.5819L10.3245 17.9261C10.1194 18.0246 9.88061 18.0246 9.67545 17.9261L6.875 16.5819L4.07455 17.9261C3.84215 18.0377 3.56875 18.0221 3.35057 17.8848C3.13239 17.7475 3 17.5078 3 17.25V4.51661C3 3.41374 3.80579 2.44913 4.93005 2.31046ZM9.75172 6.30747C10.0596 6.03038 10.0846 5.55616 9.80747 5.24828C9.53038 4.94039 9.05616 4.91544 8.74828 5.19253L6.24828 7.44253C6.09024 7.58476 6 7.78738 6 8C6 8.21262 6.09024 8.41524 6.24828 8.55747L8.74828 10.8075C9.05616 11.0846 9.53038 11.0596 9.80747 10.7517C10.0846 10.4438 10.0596 9.96962 9.75172 9.69253L8.70447 8.75H10.625C11.6605 8.75 12.5 9.58947 12.5 10.625C12.5 11.6605 11.6605 12.5 10.625 12.5C10.2108 12.5 9.875 12.8358 9.875 13.25C9.875 13.6642 10.2108 14 10.625 14C12.489 14 14 12.489 14 10.625C14 8.76104 12.489 7.25 10.625 7.25H8.70447L9.75172 6.30747Z" fill="#0F172A"/>
</svg>

<svg xmlns="http://www.w3.org/2000/svg" viewBox="0 0 20 20" fill="currentColor" aria-hidden="true" data-slot="icon">
  <path fill-rule="evenodd" d="M4.93 2.31a41.401 41.401 0 0 1 10.14 0C16.194 2.45 17 3.414 17 4.517V17.25a.75.75 0 0 1-1.075.676l-2.8-1.344-2.8 1.344a.75.75 0 0 1-.65 0l-2.8-1.344-2.8 1.344A.75.75 0 0 1 3 17.25V4.517c0-1.103.806-2.068 1.93-2.207Zm4.822 3.997a.75.75 0 1 0-1.004-1.114l-2.5 2.25a.75.75 0 0 0 0 1.114l2.5 2.25a.75.75 0 0 0 1.004-1.114L8.704 8.75h1.921a1.875 1.875 0 0 1 0 3.75.75.75 0 0 0 0 1.5 3.375 3.375 0 1 0 0-6.75h-1.92l1.047-.943Z" clip-rule="evenodd"/>
</svg>
